X: 18876
T: In Memory Of Coleman
R: reel
M: 4/4
K: Gdorian
|:DGBd c/d/c/B GF|D~F3 GFDF|GABc dfga|(3bag af dg{a}ga|
(3bag ag {a}gfdc|(3Bcd BG FDCD|FGBd c/d/c/A Bc|1 dgdc BGGF:|2 dgdc BGGA||
[B3D3] d g2 fg|e~c3 A~F3|(3Bcd ga fdcA|FGAc BGGA|
B2 fB FBfB|DBfB A~F3|GABc dgag|fdcA BGGA|
~B3 d g2 fg|e~c3 A~F3|(3Bcd ga fdcA|FGAc BGGA|
B2 fB FBfB|DBfB A~F3|GABc dgag|fdcA B2 AF||

